X:1
T:Khvalitye imya Gospodie
T:Сергeй Рахманинов, 1910
T:Attributed to John Chrysostom, c. 349-407 AD
T:Господи, спаси благочестивыя и Святый Боже
T:Литургиа Святого Иоанна Златоуста , Op. 31, No. 6
T:Public Domain
T:Public Domain
T:Public Domain
T:Public Domain
T:Public Domain
T:Public Domain
T:Public Domain
C:Sergei Rakhmanninov
Z:Public Domain
%%score [ ( 1 2 ) ( 3 4 ) ( 5 6 ) ( 7 8 ) ]
L:1/8
Q:1/8=40
M:8/8
K:C
V:1 treble nm="Сопрано" snm="С"
V:2 treble 
V:3 treble nm="Альт" snm="А"
V:4 treble 
V:5 treble-8 nm="Тенор" snm="Т"
V:6 treble-8 
V:7 bass nm="Бас" snm="Б"
V:8 bass 
V:1
"^Очень медленно. С большим чувством\nVery slow. With great emotion"!p!"^Го-спо-ди,        спа-си            бла-го – че-сти-вы–й,                 и      у–слы–ши     ны.              А   –  минь.\nGo-spo–di.         spa–si             bla–go  –che-sti–vui–i,                 i       u– slui –shi     nui.              A   –   min'." A>A A2- A^G A2- | %1
!<(! A^GAB!tenuto!B>!>(!A A2-!<)!!>)! | A!<(! ^G2 ^F!>(! !tenuto!A3 G!<)!!>)! | ^G8 | z4!p! ^G4 | %5
 !fermata!A8 ||[K:A][M:6/8][Q:1/8=180]"^Довольно скоро и легко\nModerately fast and lightly" z4 z | %7
 z4 z | z6 | z4 z | z4 z | z4 z | z6 | z4 z | z4 z | z4 z | z6 | z4 z | %18
"^По возможности связно\nConnected, as possible"!p!"^Сла   –   ва          От – цу    и      Сы    –     ну      и     Свя–то    –    му\nSla     –   va          Ot– tsu     i       Sui    –     nu      i     Svya-to    –    mu" !tenuto!FE !tenuto!F EF | %19
 !tenuto!F=G !tenuto!F EF | =GA !tenuto!G FG | %21
"^\nДу-ху, и      ны  –  не       и      при  – сно  и   во     ве   –  ки      ве –ков.          А  –   минь.   Свя-тый без-смерт-ный,\nDu-khu,  i       nui – nye     i       pri    –  sno  i    vo     ve  –  ki        ve– kov.          A  –   min'.    Svya-tuii bez-smert–nuii,"!<(! !tenuto!A2!>(! !tenuto!B2 A!<)!!>)! | %22
"^усиливая звучность\nstronger" !tenuto!BA!<(! !tenuto!B cB!<)! |!mp! !tenuto!cdc B[Ac] | %24
 !tenuto![Bd]!<(![Ac] !tenuto![Bd] [ce][Bd]!<)! |!f! (([ce]2 [df]3)) d | %26
!ff! (!tenuto![ce-]2 [Be]4) |!p!!<(! GAB!>(! !tenuto!B2 A-!<)!!>)! | %28
 A!p!"^по-ми-луй нас. Свя-тый без-смерт-ный,     по–ми-луй нас.   Свя-тий Бо   –   же, Свя-тый креп-кий,\npo- mi–lui  nas. Svya-tuii  bez-smert–nuii,      po–mi–lui   nas.   Svya-tii   Bo   –  zhe, Svya-tuii krep–kii,"G!tenuto!G!<(! FG!<)! | %29
!mf! Bcd!>(! !tenuto!d2 c-!>)! | c!p!A!tenuto!B!<(! AG!<)! |!mf! [Ac][GB] !tenuto![Ac] [GB][Gc] | %32
 [Ac][GB]!>(! !tenuto!c dc!>)! | %33
"^Свя–тый  без–смерт  –  ный,            по  –  ми – луй   нас.    Свя–тий   Бо     –     же,    Свя – тый   креп  –  кий,\nSvya-tuii  bez–smert    –   nuii,           po   –  mi  – lui     nas.    Svya-tii      Bo     –     zhe,   Svya– tuii    krep   –   kii," [Ac][Ad][Ae] !tenuto![Ae]2 [Bd]- | %34
 [Bd]!p!c!tenuto![Ac]!<(! [GB][FA]!<)! |!mp! [Ac][GB] !tenuto![Ac]!<(! [GB][Gc]!<)! | %36
!f! [Ac][GB] !tenuto!c d[Ac] | %37
"^Шире\nBroader"[Q:1/8=160]!ff!"^Свя-тый  без-смерт-ный,          по – ми      –      луй      нас.            Ал – ли –лу    –     иа.     Ал –ли– лу   –    иа.\nSvya-tuii  bez–smert-nuii,          po – mi       –       lui        nas.             Al  –  li   – lu     –     ia.      Al  –  li  – lu     –    ia." [Ac][Ad][Ae]!>(! !tenuto![fa]2 [eg]-!>)! | %38
!>(! [eg][df] [ce]3!>)! |!p! [Bd]2 !fermata![Ac]3 || %40
[Q:1/8=180]"^Предыдущий темп\nPrevious tempo"!p! [Ac][GB] !tenuto![Ac] [GB][Gc] | %41
 [Ac][GB] !tenuto!c dc | %42
"^замедляя\nslowing"[Q:1/8=160]"^Ал–ли–лу    –        –       иа.             И       ду   –  хо–ви Тво-е  –  му.                  Сла  –   ва  Те–бе,    Го    –  спо – ди,\nAl –  li – lu     –        –        ia.              I        du   – kho-vi Tvo-ye– mu.                  Sla    –   va  Te–bye,  Go  –   spo –  di," cd (!tenuto!e3 | %43
[Q:1/8=140] d2)!p! c3 |!p!!<(! E2!<)! | !tenuto!F2!>(! F GGA!>)! | A6 || %47
[K:D][Q:1/8=140]"^Немного медленнее чем раньше\nA little slower than before"!p! !tenuto!FEF EF | %48
 !tenuto!FE !tenuto!F GF | %49
"^сла – ва  Те  – бе.                      Сла  –   ва  Те–бе,   Го   –   спо  –  ди,   сла    –   ва     Те  –  бе. \nsla   – va  Te  – bye.                    Sla   –  va  Te–bye, Go   –   spo  –  di,     sla     –    va    Te  – bye."!<(! FG!>(! !tenuto!A2 A!<)!!>)! | %50
!p! E2- !fermata!E3 ||[K:G]"^Еже медленнее\nEven slower"[Q:1/8=120]!p! !tenuto!BA!tenuto!B AB | %52
 !tenuto!BA !tenuto!B cB |"^замедляя\nslowing"[Q:1/8=100]!<(! Bcd!>(! !tenuto!d2 d!<)!!>)! | %54
[Q:1/8=90]!pp! A6 |] %55
"^Bарианть\nVariant (measures 41-44)""^Ал – ли –лу  –   иа.   Ал –ли– лу  –   иа.    Ал–ли–лу            –              иа.\nAl  –  li   – lu    –   ia.    Al  –  li  – lu   –    ia.      Al – li – lu             –               ia." [Ac]B !tenuto![Ac] [GB][Gc] | %56
 [Ac]B !tenuto!c dc | cd (e3 | d2) c3 | %59
V:2
 x8 | x8 | x8 | x8 | x8 | x8 ||[K:A][M:6/8] x5 | x5 | x6 | x5 | x5 | x5 | x6 | x5 | x5 | x5 | x6 | %17
 x5 | x5 | x5 | x5 | x5 | x5 | x5 | x5 | x6 | x6 | x6 | x5 | x6 | x5 | x5 | x2 A2 A | x6 | x5 | %35
 x5 | x2 A2 x | x6 | x5 | x5 || x5 | x2 A2 A | c x4 | x5 | x2 | x6 | x6 ||[K:D] x5 | x5 | x5 | %50
 x5 ||[K:G] x5 | x5 | x6 | x6 |] x5 | x2 !tenuto!A2 G | c x4 | x5 | %59
V:3
!p! F>F F2- FE E2- |!<(! EEED!tenuto!D>!>(!C C2-!<)!!>)! | C!<(! E2 E!>(! !tenuto!E3 E!<)!!>)! | %3
 E8 | z4!p! B,4 | !fermata!C8 || %6
[K:A][M:6/8]!p!"^Свя-тий  Бо   –   же,  Свя-тый креп–кий, Свя-тый без-смерт-ный,   по–ми–луй нас. Свя-тий Бо   –    же,\nSvya-tii   Bo   –  zhe, Svya-tii    krep – kii,  Svya-tii     bez-smert–nuii,    po–mi–lui    nas.  Svya-tii   Bo   –  zhe," EE !tenuto!E2 E | %7
 EE !tenuto!E2 E |!<(! EEE!>(! !tenuto!A2 E-!<)!!>)! | E!pp!!<(!C!tenuto!F!>(! EF!<)!!>)! | %10
!p! EE !tenuto!E2 E | %11
"^Свя-тый креп-кий, Свя-тый без-смерт-ный,      по – ми–луй нас.  Свя-тий Бо   –    же, Свя-тый креп – кий,\nSvya-tii   krep– kii,   Svya-tii    bez-smert–nuii,      po – mi – lui   nas.  Svya-tii  Bo    –   zhe, Svya-tii   krep  –  kii," EE !tenuto!E2 E | %12
!<(! EEA!>(! !tenuto!A2 E-!<)!!>)! | E!pp!!<(!E!tenuto!F!>(! FF!<)!!>)! |!p! EE !tenuto!E2 E | %15
 EE !tenuto!E2 E |!<(! EEE!mf! !tenuto!A2!>(! G-!<)!!>)! | G!pp!F!tenuto!E EE | %18
!p! DC !tenuto!D2 D | !tenuto!DD !tenuto!D2 D | !tenuto!DD !tenuto!D2 E | %21
!<(! !tenuto![DF]2!>(! !tenuto![DF]2 F!<)!!>)! | !tenuto!F2!<(! !tenuto!F2 F!<)! | %23
!mp! !tenuto!ABA FF | !tenuto!F2!<(! !tenuto!F AF!<)! |!f! A2- A3 A |!ff! (!tenuto!A2 G4) | %27
!p!!<(! EEE!>(! !tenuto!E2 [CE]-!<)!!>)! | [CE]!p![CE]!tenuto!E!<(! ^DE!<)! | %29
!mf! EEE!>(! !tenuto!FGA-!>)! | A!p![FA]!tenuto!F!<(! FE!<)! |!mf! AE !tenuto!A EC | %32
 AE!>(! !tenuto!A FE!>)! | EEA AGF- | F!p!F!tenuto!F!<(! CC!<)! |!mp! AE !tenuto!A!<(! EC!<)! | %36
!f! AE !tenuto!A FE |!ff! EE[EA]!>(! !tenuto![Ac]2 [Gc]-!>)! |!>(! [Gc][FA] [EA]3!>)! | %39
!p! AG !fermata![EA]3 ||!p! AE !tenuto!A EC | AE !tenuto!A FE | AA A3- | AG!p! A3 |!p!!<(! E2!<)! | %45
 !tenuto!D2!>(! D DDC!>)! | C6 ||[K:D]!p! !tenuto!D2 D CD | !tenuto!D2 !tenuto!D2 D | %49
!<(! D2!>(! !tenuto!D2 D!<)!!>)! |!p! C2- !fermata!C3 ||[K:G]!p! !tenuto!G2 !tenuto!G FG | %52
 !tenuto!G2 !tenuto!G2 G |!<(! G3!>(! !tenuto!G2 G!<)!!>)! |!pp! F6 |] AE !tenuto!A EC | %56
 AE !tenuto!A FE | AA !tenuto!A3- | AG A3 | %59
V:4
 x8 | x8 | x8 | x8 | x8 | x8 ||[K:A][M:6/8] x5 | x5 | x6 | x5 | x5 | x5 | x6 | x5 | x5 | x5 | x6 | %17
 x5 | x5 | x5 | x5 | x5 | x5 | F2 F x x | x5 | x6 | x6 | x2 x ED z | x5 | x2 x F2 E- | E x4 | x5 | %32
 x5 | x6 | x5 | x5 | x5 | x6 | x5 | E2 x2 x || x5 | x5 | x5 | x5 | x2 | x6 | x6 ||[K:D] x5 | x5 | %49
 x5 | x5 ||[K:G] x5 | x5 | x6 | x6 |] x5 | x5 | x5 | x5 | %59
V:5
!p!"^Го-спо-ди,        спа-си            бла-го – че-сти-вы–й,                 и      у–слы–ши     ны.              А   –  минь.\nGo-spo–di.         spa–si             bla–go  –che-sti–vui–i,                 i       u– slui –shi     nui.              A   –   min'." d>d d2- dB A2- | %1
!<(! ABcE!tenuto!E>!>(!E E2-!<)!!>)! | E!<(! B2 A!>(! !tenuto!c3 B!<)!!>)! | B8 | z4!p! E4 | %5
 !fermata!E8 || %6
[K:A][M:6/8]!p!"^Свя-тий  Бо   –   же,  Свя-тый креп–кий, Свя-тый без-смерт-ный,   по–ми–луй нас. Свя-тий Бо   –    же,\nSvya-tii   Bo   –  zhe, Svya-tii    krep – kii,  Svya-tii     bez-smert–nuii,    po–mi–lui    nas.  Svya-tii   Bo   –  zhe," [Ac][GB] !tenuto![Ac] [GB][Gc] | %7
 [Ac][GB] !tenuto!c dc |!<(! [Ac][Ad][Ae]!>(! !tenuto![Ae]2 [Ad]-!<)!!>)! | %9
 [Ad]!pp!!<(![Ac]!tenuto![Ac]!>(! [GB][FA]!<)!!>)! |!p! [Ac][GB] !tenuto![Ac] [GB][Gc] | %11
 [Ac][GB] !tenuto!c dc |!<(! [Ac][Ad][Ae]!>(! !tenuto![Af]2 [Ae]-!<)!!>)! | %13
 [Ae]!pp!!<(![Be]!tenuto![Bd]!>(! [^Ac][Bd]!<)!!>)! |!p! [Ac]B !tenuto![Ac] [GB][Gc] | %15
 [Ac]B !tenuto![Ac] [Gd][Gc] | %16
"^Свя-тый без-смерт-ный,    по–ми–луй нас.  Сла   –   ва          От – цу    и      Сы    –     ну      и     Свя–то    –    му\nSvya-tii   bez–smert–nuii,    po–mi –lui    nas.  Sla     –   va          Ot– tsu     i       Sui    –     nu      i     Svya-to    –    mu"!<(! [Ac][Ad][Ae]!mf! !tenuto![cf]2!>(! [ce]-!<)!!>)! | %17
 [ce]!pp![Ad]!tenuto![Ac] [Bd][Ac] |!p! A2 !tenuto!A =GA | !tenuto!AB A =GA | %20
 !tenuto!B=c B A[=GB] | %21
"^Ду-ху, и      ны  –  не       и      при  – сно  и   во     ве   –  ки      ве –ков.          А  –   минь.   Свя-тый без-смерт-ный,\nDu-khu,  i       nui – nye     i       pri    –  sno  i    vo     ve  –  ki        ve– kov.          A  –   min'.    Svya-tuii bez-smert–nuii,"!<(! !tenuto!A2!>(! !tenuto!B2 [Ac]!<)!!>)! | %22
 !tenuto![Bd][Ac]!<(! !tenuto![Bd] [ce][Bd]!<)! |!mp! !tenuto![Ac][Bd][Ac] Bc | %24
 !tenuto!d!<(!c !tenuto!d ed!<)! |!f! (e2 !tenuto!f3) d |!ff! ((!tenuto![ce]2 [Be]4)) | %27
!p!!<(! [EB][EB][EB]!>(! !tenuto![EB]2 [EA]-!<)!!>)! | %28
 [EA]!p!"^по-ми-луй нас. Свя-тый без-смерт-ный,     по–ми-луй нас.   Свя-тий Бо   –   же, Свя-тый креп-кий,\npo- mi–lui  nas. Svya-tuii  bez-smert–nuii,      po–mi–lui   nas.   Svya-tii   Bo   –  zhe, Svya-tuii krep–kii,"[EG]!tenuto!B!<(! [AB][GB]!<)! | %29
!mf! [EB][Ec][Ed]!>(! !tenuto!d2 [Ac]-!>)! | [Ac]!p![Ac]!tenuto!B!<(! BB!<)! | %31
!mf! [ce][de] !tenuto![ce]2 [ce] | [ce][de]!>(! !tenuto![ce] [Bd]c!>)! | %33
"^Свя–тый  без–смерт  –  ный,            по  –  ми – луй   нас.    Свя–тий   Бо     –     же,    Свя – тый   креп  –  кий,\nSvya-tuii  bez–smert    –   nuii,           po   –  mi  – lui     nas.    Svya-tii      Bo     –     zhe,   Svya– tuii    krep   –   kii," [Ac][Ad][Ae] !tenuto![Ae]2 [Bd]- | %34
 [Bd]!p!c!tenuto![Ac]!<(! [GB][FA]!<)! |!mp! [ce][de]!<(! !tenuto![ce]2 [ce]!<)! | %36
!f! [ce][de] !tenuto![ce] [Bd]c | %37
!ff!"^Свя-тый  без-смерт-ный,          по – ми      –      луй      нас.            Ал – ли –лу    –     иа.     Ал –ли– лу   –    иа.\nSvya-tuii  bez–smert-nuii,          po – mi       –       lui        nas.             Al  –  li   – lu     –     ia.      Al  –  li  – lu     –    ia." [Ac][Ad][Ae]!>(! !tenuto![fa]2 [eg]-!>)! | %38
!>(! [eg][df] [ce]3!>)! |!p! [Bd]2 !fermata![Ac]3 ||!p! [Ae]e !tenuto!e2 e | ee !tenuto!e2 e | %42
"^Ал–ли–лу    –        –       иа.             И       ду   –  хо–ви Тво-е  –  му.                  Сла  –   ва  Те–бе,    Го    –  спо – ди,\nAl –  li – lu     –        –        ia.              I        du   – kho-vi Tvo-ye– mu.                  Sla    –   va  Te–bye,  Go  –   spo –  di," ee e3- | %43
 e2!p! [Ae]3 |!p!!<(! A2!<)! | !tenuto!A2!>(! B BBA!>)! | A6 ||[K:D]!p! !tenuto!AGA AA | %48
 !tenuto!AG !tenuto!A BA | %49
"^сла – ва  Те  – бе.                      Сла  –   ва  Те–бе,   Го   –   спо  –  ди,   сла    –   ва     Те  –  бе. \nsla   – va  Te  – bye.                    Sla   –  va  Te–bye, Go   –   spo  –  di,     sla     –    va    Te  – bye."!<(! A2!>(! !tenuto!A2 B!<)!!>)! | %50
!p! c2- !fermata!c3 ||[K:G]!p! !tenuto!dc!tenuto!d dd | !tenuto!dc !tenuto!d ed | %53
!<(! d3!>(! !tenuto!d2 e!<)!!>)! |!pp! f6 |] %55
"^Ал – ли –лу  –   иа.   Ал –ли– лу  –   иа.    Ал–ли–лу            –              иа.\nAl  –  li   – lu    –   ia.    Al  –  li  – lu   –    ia.      Al – li – lu             –               ia." ee !tenuto!e2 e | %56
 ee !tenuto!e2 e | ee !tenuto!e3- | e2 [Ae]3 | %59
V:6
 x8 | x8 | x8 | x8 | x8 | x8 ||[K:A][M:6/8] x5 | x2 A2 A | x6 | x5 | x5 | x2 A2 A | x6 | x5 | x5 | %15
 x5 | x6 | x5 | x5 | x5 | x5 | x5 | x5 | x5 | x5 | x6 | x6 | x6 | x5 | x2 x FG x | x5 | x5 | x5 | %33
 x6 | x5 | x5 | x5 | x2 x c2 c- | cA A3 | x5 || x e A Bc | Ae A Bc | AB c2 d | e2 x2 x | x2 | x6 | %46
 x6 ||[K:D] x5 | x5 | x5 | x5 ||[K:G] x5 | x5 | x6 | x6 |] FG !tenuto!A Bc | FG !tenuto!A Bc | %57
 AB !tenuto!c2 d | e2 x2 x | %59
V:7
!p! D,>D, D,2- D,E, C,2- |!<(! C,B,,A,,^G,,!tenuto!G,,>!>(!A,, A,,2-!<)!!>)! | %2
 A,,!<(! B,,2 C,!>(! !tenuto!E,3 E,!<)!!>)! | E,8 | z4!p! E,4 | !fermata!A,,8 || %6
[K:A][M:6/8]!p! E,E, !tenuto!E,2 E, | E,E, !tenuto!E, F,E, | %8
!<(! [A,,E,][B,,E,][C,E,]!>(! !tenuto![C,E,]2 [B,,E,]-!<)!!>)! | %9
 [B,,E,]!pp!!<(![A,,E,]!tenuto!C,!>(! C,[F,,C,]!<)!!>)! |!p! E,E, !tenuto!E,2 E, | %11
 E,E, !tenuto!E, F,E, |!<(! [A,,E,][B,,E,][C,E,]!>(! !tenuto![D,F,]2 [C,E,]-!<)!!>)! | %13
!pp! [C,E,]!<(![C,=G,]F,!>(! F,[B,,F,]!<)!!>)! |!p! E,E, !tenuto!E,2 E, | E,E, !tenuto!E,2 E, | %16
!<(! [A,,E,][B,,E,][C,E,]!mf! !tenuto![F,A,]2!>(! [C,G,]-!<)!!>)! | %17
 [C,G,]!pp![D,F,]!tenuto!E, E,[A,,E,] |!p! !tenuto!D,2 !tenuto!D,2 D, | %19
 !tenuto!D,D, !tenuto!D,2 D, | !tenuto!D,D, !tenuto!D,2 E, | %21
!<(! !tenuto![D,F,]2!>(! !tenuto![B,,F,]2 [F,,F,]!<)!!>)! | !tenuto!F,2!<(! !tenuto!F,2 F,!<)! | %23
!mp! !tenuto!F,2 [C,F,] [D,F,]F, | !tenuto!B,!<(!F, !tenuto!B, A,B,!<)! |!f! (C2 D3) F, | %26
!ff! (!tenuto!A,2 E,4) |!p!!<(! E,,F,,G,,!>(! !tenuto!G,,2 A,,-!<)!!>)! | %28
 A,,!p!C,!tenuto!B,,!<(! B,,E,!<)! |!mf! G,,A,,B,,!>(! !tenuto!B,,2 C,-!>)! | %30
 C,!p!F,!tenuto!D,!<(! ^D,E,!<)! |!mf! A,B, !tenuto!A,2 G, | A,B, !tenuto!A,2 A, | %33
 [A,,E,][B,,E,][C,E,] !tenuto![C,E,]2 [B,,F,]- | [B,,F,]!p![A,,F,]!tenuto!C,!<(! C,[F,,C,]!<)! | %35
!mp! A,B,!<(! !tenuto!A,2 G,!<)! |!f! A,B, !tenuto!A,2 A, | %37
!ff! [A,,E,][B,,E,][C,E,]!>(! F,2 [C,G,]-!>)! |!>(! [C,G,]D, E,3!>)! |!p! E,2 !fermata![A,,E,]3 || %40
 z4 z | z4 z | z4 z | z4 z |!p!!<(! C,2!<)! | !tenuto!D,2!>(! B,, E,E,[A,,E,]!>)! | [A,,E,]6 || %47
[K:D]!p! D,B,,D, A,,F,, | !tenuto!D,B,, !tenuto!D, G,,A,, |!<(! D,E,!>(! !tenuto!F,2 G,!<)!!>)! | %50
!p! A,2- !fermata!A,3 ||[K:G]!p! !tenuto!G,E,!tenuto!G, D,B,, | !tenuto!G,E, !tenuto!G, C,D, | %53
!<(! G,A,B,!>(! !tenuto!B,2 C!<)!!>)! |!pp! D6 |] %55
"^____________________________________________________\nEdited by B. C. Johnston, 2016\nMany time signature changes in original, mostly alternating between 5/8 and 6/8;\n   these all removed in this edition." z4 z | %56
 z4 z | z4 z | z4 z | %59
V:8
 x8 | x8 | x8 | x8 | x8 | x8 ||[K:A][M:6/8] A,,E,, A,, E,,C,, | A,,E,, A,, D,,A,, | x6 | %9
 x2 C, C, x | A,,E,, A,, E,,C,, | A,,E,, A,, D,,A,, | x6 | x2 F, F, x | F,,G,, !tenuto!A,, B,,C, | %15
 F,,G,, !tenuto!A,, B,,C, | x6 | x2 E, E, z | !tenuto!D,A,, !tenuto!D, B,,F,, | %19
 !tenuto!D,=G,, !tenuto!D, B,,A,, | !tenuto!=G,,F,, !tenuto!G,, B,,E, | x5 | %22
 !tenuto!B,,F,, !tenuto!B,, A,,D, | C,B,, x2 x | x5 | x6 | x6 | x6 | x5 | x6 | x5 | %31
 [A,,E,][A,,E,] [A,,E,]2 [A,,E,] | [A,,E,][A,,E,] [A,,E,]2 [A,,E,] | x6 | x2 C, C, x | %35
 [A,,E,][A,,E,] [A,,E,]2 [A,,E,] | [A,,E,][A,,E,] [A,,E,]2 [A,,E,] | x6 | x D, E,3 | E,2 x2 x || %40
 x5 | x5 | x5 | x5 | x2 | x6 | x6 ||[K:D] x5 | x5 | x5 | x5 || %51
[K:G] !tenuto!G,,2 !tenuto!G,, !tenuto!G,,G,, | !tenuto!G,,2 !tenuto!G,,2 G,, | x6 | x6 |] x5 | %56
 x5 | x5 | x5 | %59

